X:71
%%topspace -50
T:Battered Hake Polka
C:Colin Cotter
M:4/4
K:D
"D"d2 dd e2 c2 | d2 B2 A2 AA | "G"B2 B2 GA B2 | "A"A2 F2 E2 D2 |
"D"d2 dd e2 c2 | d2 B2 A2 AA | "G"B2 G2 "A"c2 A2 | "G"d2 B2 "A"e2 c2 :|
|: "D"D2 FG A2 A2 | D2 FG A2 A2 | "Em"E2 GA B2 B2 | E2 GA B2 B2 |
"D"D2 FG A2 A2 | D2 FG A2 A2 |1 "G"B2 B2 GA B2 | "A"A2 F2 E2 D2 :|2 "G"B2 G2 "A"c2 A2 | "G"d2 B2 "A"e2 c2 :|

